icons/contact_support_fill.svg

<svg width="48" height="48" viewBox="0 0 48 48" fill="none" xmlns="http://www.w3.org/2000/svg">
<path fill-rule="evenodd" clip-rule="evenodd" d="M6 20.5C6 12.4919 12.4919 6 20.5 6H27.5C35.5081 6 42 12.4919 42 20.5C42 28.5081 35.5081 35 27.5 35H26.8V42C26.8 42 6 38.5 6 20.5ZM27.6914 12.4815C28.7211 13.1664 29.4977 14.2754 29.4977 15.7611C29.4977 17.3398 28.8609 18.4998 27.8298 19.2103C27.4025 19.5047 26.9427 19.6971 26.5 19.8236V21.3559C26.5 22.1844 25.8284 22.8559 25 22.8559C24.1716 22.8559 23.5 22.1844 23.5 21.3559V18.5586C23.5 17.769 24.1121 17.1147 24.8999 17.062C25.4539 17.0249 25.8743 16.9146 26.1276 16.74C26.2342 16.6665 26.3107 16.5823 26.3681 16.4677C26.4278 16.3486 26.4977 16.1339 26.4977 15.7611C26.4977 15.4485 26.3747 15.2088 26.0299 14.9794C25.6378 14.7186 25.0078 14.5265 24.2513 14.5025C23.5028 14.4787 22.776 14.625 22.2418 14.884C21.7049 15.1443 21.5087 15.4358 21.4533 15.6513C21.2472 16.4537 20.4297 16.9371 19.6273 16.731C18.825 16.5249 18.3416 15.7074 18.5476 14.905C18.8921 13.5637 19.8955 12.6875 20.9331 12.1845C21.9733 11.6802 23.1959 11.4674 24.3467 11.504C25.4895 11.5403 26.7089 11.828 27.6914 12.4815ZM25 29C26.1046 29 27 28.1046 27 27C27 25.8954 26.1046 25 25 25C23.8954 25 23 25.8954 23 27C23 28.1046 23.8954 29 25 29Z" fill="black"/>
</svg>

<svg
  xmlns="http://www.w3.org/2000/svg"
  width="24"
  height="24"
  viewBox="0 0 24 24"
  fill="none"
  stroke="currentColor"
  stroke-width="2"
  stroke-linecap="round"
  stroke-linejoin="round"
>
  <path
    fill-rule="evenodd"
    d="M6 20.5C6 12.492 12.492 6 20.5 6h7C35.508 6 42 12.492 42 20.5S35.508 35 27.5 35h-.7v7S6 38.5 6 20.5m21.691-8.018c1.03.684 1.807 1.793 1.807 3.28 0 1.578-.637 2.738-1.668 3.448a4.5 4.5 0 0 1-1.33.614v1.532a1.5 1.5 0 1 1-3 0v-2.797a1.5 1.5 0 0 1 1.4-1.497c.554-.037.974-.147 1.228-.322a.7.7 0 0 0 .24-.272c.06-.12.13-.334.13-.707 0-.312-.123-.552-.468-.782-.392-.26-1.022-.452-1.779-.476-.748-.024-1.475.122-2.01.381-.536.26-.732.552-.788.767a1.5 1.5 0 1 1-2.905-.746c.344-1.341 1.348-2.217 2.385-2.72 1.04-.505 2.263-.718 3.414-.681 1.142.036 2.362.324 3.344.978M25 29a2 2 0 1 0 0-4 2 2 0 0 0 0 4"
    clip-rule="evenodd"
  />
</svg>
